X:1
T:Lodate Dio
T:Giovanni Animuccia
T:Source : Primo libro delle Laude spirituali a tre voci---Roma---A.Gardano---1583. Editor : André Vierendeels (21/11/17). Notes : Original clefs : C1, C3, C3 Editorial accidentals above the staff 
T:Lodate Dio
T:©
T:©
T:©
C:Giovanni Animuccia
Z:©
%%score [ 1 2 3 ]
L:1/8
Q:1/4=120
M:4/4
K:F
V:1 treble nm="Soprano" snm="S"
V:2 treble nm="Alto" snm="A"
V:3 treble-8 nm="Tenor" snm="T"
V:1
"^1)" A8 | B4 A4 | G8 | F4 A4 | B4 A4 | G8 | F4 A4 | G4 F4 | G2 A2 F4- | F2 ED E4 | !fermata!D8 | %11
w: Lo-|da- te|Di-|o, lo-|da- te|Di-|o con|cuor hu-|mil et pi-||o.|
w: Lo-|da- te|Di-|o, lo-|da- te|Di-|o con|cuor hu-|mil et pi-||o.|
 z4 A4 | A3 A A2 B2 | A3 G/F/ G4 | A2 A2 F3 E | F2 G2 E4 | D8 | z4 A4 | A3 A A2 B2 | %19
w: Su|a- ni- me leggia-||dre ve- sti- te-|vi d'a- mo-|re,|ren-|det' al som- mo|
w: gli'è|quel som- mo be-||ne, v'ha tut- ti|cre- * a-|ti,|tra-|ti de mor- tal|
"^#" A3 G/F/ G4 | A4 A4 | F3 E F2 G2 | E8 | D8 | z4 A4- | A2 A2 c4 | G2 A2 B4 | A4 A4 | %28
w: pa- * * *|dre lau-|de glo- ria'et ho-|no-|re,|rin-|* gra- tia|t'il si- gno-|re, con|
w: pe- * * *|ne con|sua mor- te sal-|va-|ti,|al|_ Ciel se-|te chia- ma-|ti, da|
 G3 G G2 F2 | G8 | F4 A4 | G6 F2 | G4 A4 | D2 E2 F2 D2 | E8 | D8 |] %36
w: o- gni buon de-|si-|o, con|o- gni|buon de-|si- * * *||o.|
w: Gie- su dol- c'e|pi-|o, da|Gie- su|dol- c'e|pi- * * *||o.|
V:2
"^2)""^1)" F8 | D4 C2 F2- | F2 ED E4 | F4 D4 | G,4 D2 F2- | F2 ED E4 | C4 C4 | D6 C2 | %8
w: Lo-|da- te Di-||o, lo-|da- te Di-||o, con|cuor hu-|
w: Lo-|da- te Di-||o, l-|da- te Di-||o con|cuor hu-|
 D2 E2 F2 D2- |"^-natural" D2 CB, C4 | !fermata!D8 | z4 F4 | F3 F F2 F2 | DE F4 E2 | F2 C2 D3 C | %15
w: mil et pi- *||o.|Su|a- ni- me leg-|gia- * * *|dre ve- sti- te-|
w: mil et pi- *||o.|Gu-|sta- te'i suo- ni'e|con- * * *|ti, che so- no'in|
 B,2 D2 ^C4 | D8 | z4 F4 | F3 F F2 F2 | DE F4 E2 | F4 C4 | D3 C B,2 D2- |"^-natural" D2 CB, C4 | %23
w: vi d'a- mo-|re,|ren-|det' al som- mo|pa- * * *|dre lau-|de glo- ria'et ho-|* * * no-|
w: Pa- ra- di-|so,|Hor-|su gen- ti- li'a-|man- * * *|ti, te-|ne- te l'oc- chio|_ _ _ fi-|
 D8 | z4 F4- | F2 F2 E4 | E2 F2 D2 E2 | F4 F4 | E3 D E2 F2- | F2 ED E4 | F4 F4 | E6 C2 | D4 E4 | %33
w: re,|rin-|* gra- tia|t'il si- gno- *|re, con|o- gni buon de-|* * * si-|o, con|o- gni|buon de|
w: so,|mi-|* ra- te'il|dol- ce vi- *|so di|Gie- su no- stro|_ _ _ Di-|o, di|Gie- su|no- stro|
 F2 E2 D4- |"^-natural" D2 CB, C4 | D8 |] %36
w: si- * *||o.|
w: Di- * *||o.|
V:3
"^3)""^1)""^4)""^5)" d8 | B4 F4 | G8 | F4 f4 | d4 f4 | c8 | F4 F4 | B4 z2 A2 | B2 c2 d2 d2 | A8 | %10
w: Lo-|da- te|Di-|o, lo-|da- te|Di-|o, con|cuor hu-|* * mil et|pi-|
w: Lo-|da- te|Di-|o, lo-|da- te|Di-|o, con|cuor hu-|* * mil et|pi-|
w: Lo-|da- te|Di-|o, lo-|da- te|Di-|o, con|cuor hu-|* * mil et|pi-|
 !fermata!d8 | z4 d4 | d3 d d2 d2 | f4 c4 | z2 F2 B3 c | d2 G2 A4 | d8 | z4 d4 | d3 d d2 d2 | %19
w: o.|Su|a- ni- me leg-|gia- dre|ve- sti- te-|vi d'a- mo-|re,|ren-|det' al som- mo|
w: o.|De-|si- de- ra- te|pre- sto|an- dar con|lui al Cie-|lo,|non|vi pa- ia mo-|
w: o.|a-|mor ar- deen- te-|men- te|si bel- lo'e|buo- no Spo-|so,|cer-|ca- te con la-|
 f4 c4 | z4 F4 | B3 c d2 G2 | A8 | d8 | z4 d4- | d2 d2 A4 | c2 F2 G4 | F4 F4 | c3 B c2 d2 | c8 | %30
w: pa- dre|lau-|de glo- ria'et ho-|no-|re,|rin-|* gra- tia|t'il si- gno-|re, con|o- gni buon de-|si-|
w: le- sto,|la-|sciar il mor- tal|ve-|lo,|fu-|* gi- te|con gran ze-|lo, o-|gni di- let- to|ri-|
w: men- te,|il|suo dol- ce ri-|po-|so.|As-|* tol- t'il|par- lar mi-|o, As-|tol- t'il par- lar|mi-|
 F4 F4 | c6 A2 | B4 c4 | B8 | A8 | d8 |] %36
w: o, con|o- gni|buon de-|si-||o.|
w: o, o-|gni di-|let- to|ri-||o.|
w: o, As-|tol- t'il|par- lar|mi-||o.|

